X: 081227
T: Hair Fell Off My Coconut
S: "Johnny O'Leary of Sliabh Luachra" (#135)
Z: B.Black
N: version of "Hundred Pipers"
L: 1/8
M: 12/8
Q: 350
R: slide
K: A
B|: c2E EFE F2A A2F|ecc BAB cec BAB|
c2E EFE F2A A2F|1 e2c BcB A3 A2 :|2\
e2c BcB A3 A3||
c2e ede f2a agf|e2c BAB c2B BAB|
c2e ede f2a agf|e2c BAB A3 A3 :|
